Papirus/24x24/panel/yd-busy2.svg

<?xml version="1.0" encoding="UTF-8" standalone="no"?>
<svg xmlns:dc="http://purl.org/dc/elements/1.1/" xmlns:cc="http://creativecommons.org/ns#" xmlns:rdf="http://www.w3.org/1999/02/22-rdf-syntax-ns#" xmlns:svg="http://www.w3.org/2000/svg" xmlns="http://www.w3.org/2000/svg" version="1.0" width="24" height="24" id="svg2817">
    <metadata id="metadata57">
        <rdf:RDF>
            <cc:Work rdf:about="">
                <dc:format>
                    image/svg+xml
                </dc:format>
                <dc:type rdf:resource="http://purl.org/dc/dcmitype/StillImage"/>
                <dc:title/>
            </cc:Work>
        </rdf:RDF>
    </metadata>
    <path style="opacity:1;fill:#ffffff;fill-opacity:1" d="m 4.1875955,10.022687 c -0.1729482,0.05391 -0.3098051,0.107377 -0.4126038,0.153165 0.1159922,-0.05093 0.2563597,-0.102379 0.4126038,-0.153165 z m 15.1050715,4.244338 c 0.02675,0.0392 0.05432,0.07841 0.07452,0.114218 -0.01553,-0.02749 -0.04172,-0.06781 -0.07452,-0.114218 z m -7.300782,-3.798201 c 4.553773,1.188789 6.441311,2.790881 7.097777,3.541824 -0.720388,-0.827959 -2.336644,-2.093537 -2.929083,-3.15271 C 15.594534,9.845849 15.575023,7.7602024 12.925903,7.0686779 10.277265,6.3774919 9.2540874,8.1369939 8.1806121,8.7758428 7.3009947,9.29993 5.3071093,9.65716 4.1880438,10.022338 5.2413982,9.692149 7.6431496,9.3346 11.99207,10.46893 Z M 14.50126,8.8630116 c 0.249102,0.06509 0.547556,0.3303074 0.703762,0.6747844 0.222254,0.489113 0.09812,0.966673 -0.378688,0.842227 C 14.349081,10.255301 13.993942,9.65326 14.020343,9.228977 14.039323,8.9296372 14.25265,8.7978087 14.501258,8.8630416 Z M 12.647689,8.186605 c 0.407875,0.1069707 0.660847,0.4760526 0.56504,0.825673 C 13.116809,9.360997 12.708282,9.55801 12.300392,9.451171 11.892258,9.344491 11.639295,8.9755521 11.735059,8.6258996 11.830949,8.2771881 12.239337,8.080375 12.647725,8.1866489 Z M 9.7399273,8.111378 C 10.052415,7.8891686 10.44649,7.8049186 10.69533,7.8694607 10.943813,7.9343448 11.061537,8.152516 10.924384,8.4205555 10.729702,8.8009561 10.113437,9.149411 9.636027,9.024983 9.1595433,8.9006885 9.2968189,8.4269228 9.739881,8.1113513 Z m 9.3492327,7.494894 c 0.339975,-1.228853 -2.937375,-3.03595 -7.283445,-4.16316 -4.3458391,-1.127081 -8.116783,-1.1486 -8.4555745,0.08033 -0.2298519,0.831469 1.133607,2.164591 3.3841395,3.288785 0.8638765,0.602683 2.1586337,1.171903 3.663275,1.564472 1.482862,0.387186 2.877966,0.527254 3.929868,0.434885 2.598232,0.139675 4.527935,-0.35908 4.761613,-1.205415 z m -8.531601,0.19068 C 8.6685471,15.304065 7.2131339,14.626446 7.3463558,14.142688 c 0.1326873,-0.483488 1.7655919,-0.453966 3.6547852,0.03935 1.889074,0.492355 3.318585,1.263582 3.185964,1.747365 -0.132599,0.483276 -1.740899,0.360533 -3.629611,-0.132449 z" id="yandex-ufo"/>
</svg>

<?xml version="1.0" encoding="UTF-8" standalone="no"?>
<svg id="svg2817" xmlns:rdf="http://www.w3.org/1999/02/22-rdf-syntax-ns#" xmlns="http://www.w3.org/2000/svg" height="24" width="24" version="1.0" xmlns:cc="http://creativecommons.org/ns#" xmlns:dc="http://purl.org/dc/elements/1.1/">
 <metadata id="metadata57">
  <rdf:RDF>
   <cc:Work rdf:about="">
    <dc:format>image/svg+xml</dc:format>
    <dc:type rdf:resource="http://purl.org/dc/dcmitype/StillImage"/>
    <dc:title/>
   </cc:Work>
  </rdf:RDF>
 </metadata>
 <path id="yandex-ufo" d="m4.1876 10.023c-0.17295 0.05391-0.30981 0.10738-0.4126 0.15316 0.11599-0.05093 0.25636-0.10238 0.4126-0.15316zm15.105 4.2443c0.02675 0.0392 0.05432 0.07841 0.07452 0.11422-0.01553-0.02749-0.04172-0.06781-0.07452-0.11422zm-7.3008-3.7982c4.5538 1.1888 6.4413 2.7909 7.0978 3.5418-0.72039-0.82796-2.3366-2.0935-2.9291-3.1527-0.566-1.0122-0.586-3.0978-3.235-3.7893-2.649-0.6912-3.6719 1.0683-4.7454 1.7071-0.8796 0.5241-2.8735 0.8814-3.9926 1.2462 1.0534-0.3299 3.4551-0.6874 7.804 0.447zm2.509-1.606c0.2491 0.06509 0.54756 0.33031 0.70376 0.67478 0.22225 0.48911 0.09812 0.96667-0.37869 0.84223-0.477-0.125-0.832-0.7267-0.806-1.151 0.019-0.2994 0.233-0.4312 0.481-0.366zm-1.853-0.6764c0.40788 0.10697 0.66085 0.47605 0.56504 0.82567-0.096 0.3487-0.505 0.5457-0.913 0.4389-0.408-0.1067-0.661-0.4756-0.565-0.8253 0.096-0.3487 0.504-0.5455 0.913-0.4393zm-2.9081-0.0752c0.3121-0.2222 0.7061-0.3065 0.9551-0.2419 0.249 0.0648 0.367 0.283 0.229 0.5511-0.194 0.3804-0.811 0.7288-1.288 0.6044-0.4765-0.1243-0.3392-0.5981 0.1039-0.9136zm9.3492 7.4949c0.33998-1.2289-2.9374-3.036-7.2834-4.1632-4.3458-1.1271-8.1168-1.1486-8.4556 0.08033-0.22985 0.83147 1.1336 2.1646 3.3841 3.2888 0.86388 0.60268 2.1586 1.1719 3.6633 1.5645 1.4829 0.38719 2.878 0.52725 3.9299 0.43488 2.5982 0.13968 4.5279-0.35908 4.7616-1.2054zm-8.5316 0.19068c-1.8885-0.493-3.3439-1.171-3.2106-1.654 0.13269-0.48349 1.7656-0.45397 3.6548 0.03935 1.8891 0.49236 3.3186 1.2636 3.186 1.7474-0.1326 0.48328-1.7409 0.36053-3.6296-0.13245z" fill="#fff"/>
</svg>
